svg/face holding back tears.svg

<?xml version="1.0" encoding="UTF-8" standalone="no"?>
<svg
   width="128px"
   height="128px"
   version="1.1"
   xml:space="preserve"
   style="fill-rule:evenodd;clip-rule:evenodd;stroke-linecap:round;stroke-linejoin:round;stroke-miterlimit:1.5;"
   id="svg12"
   sodipodi:docname="face holding back tears.svg"
   inkscape:version="1.3 (0e150ed6c4, 2023-07-21)"
   xmlns:inkscape="http://www.inkscape.org/namespaces/inkscape"
   xmlns:sodipodi="http://sodipodi.sourceforge.net/DTD/sodipodi-0.dtd"
   xmlns:xlink="http://www.w3.org/1999/xlink"
   xmlns="http://www.w3.org/2000/svg"
   xmlns:svg="http://www.w3.org/2000/svg"><defs
     id="defs12"><path
       id="path5-9"
       d="M 125.89,75.13 C 133.7,45.06 117.12,15.08 87.57,9.59 24,-2.25 -3.96,53.51 0.68,94.97 c 0,13.83 28.25,25.05 63.08,25.05 32.66,0 59.51,-9.87 62.75,-22.49 0.22,-0.85 0.33,-1.7 0.33,-2.56 0,-6.57 -4.13,-7.56 -0.95,-19.84 z" /></defs><sodipodi:namedview
     id="namedview12"
     pagecolor="#ffffff"
     bordercolor="#000000"
     borderopacity="0.25"
     inkscape:showpageshadow="2"
     inkscape:pageopacity="0.0"
     inkscape:pagecheckerboard="0"
     inkscape:deskcolor="#d1d1d1"
     inkscape:zoom="8.515625"
     inkscape:cx="64"
     inkscape:cy="64"
     inkscape:current-layer="svg12" /><g
     id="g6-1"
     transform="translate(-5.6865133e-4,0.0026138)">&#10;		<g
   id="g5-9">&#10;			<g
   id="g4-2">&#10;				<path
   fill="#fcc21b"
   d="M 125.89,75.13 C 133.7,45.06 117.12,15.08 87.57,9.59 24,-2.25 -3.96,53.51 0.68,94.97 c 0,13.83 28.25,25.05 63.08,25.05 32.66,0 59.51,-9.87 62.75,-22.49 0.22,-0.85 0.33,-1.7 0.33,-2.56 0,-6.57 -4.13,-7.56 -0.95,-19.84 z"
   id="path1-0" />&#10;				<g
   id="g3-2">&#10;					<g
   id="g2-3">&#10;						<defs
   id="defs2">&#10;							<path
   id="path13"
   d="M 125.89,75.13 C 133.7,45.06 117.12,15.08 87.57,9.59 24,-2.25 -3.96,53.51 0.68,94.97 c 0,13.83 28.25,25.05 63.08,25.05 32.66,0 59.51,-9.87 62.75,-22.49 0.22,-0.85 0.33,-1.7 0.33,-2.56 0,-6.57 -4.13,-7.56 -0.95,-19.84 z" />&#10;						</defs>&#10;						<clipPath
   id="SVGID_2_">&#10;							<use
   xlink:href="#SVGID_1_"
   overflow="visible"
   id="use1" />&#10;						</clipPath>&#10;					</g>&#10;				</g>&#10;			</g>&#10;			&#10;		</g>&#10;		&#10;	</g><rect
     x="0.06"
     y="0"
     width="127.99"
     height="128"
     style="fill:none;"
     id="rect1" /><g
     transform="matrix(0.99319746,0.11644231,0.11644231,-0.99319746,-16.765374,168.274)"
     id="g2"><path
       d="m 63.89,79.09 c -14.13,0 -22.18,8.14 -22.52,8.48 -0.556,0.601 -0.865,1.39 -0.865,2.209 0,1.785 1.469,3.254 3.254,3.254 0.853,0 1.673,-0.335 2.281,-0.933 0.25,-0.25 6.58,-6.51 17.85,-6.51 11.27,0 17.6,6.25 17.87,6.52 1.251,1.262 3.317,1.28 4.59,0.04 0.626,-0.609 0.979,-1.447 0.979,-2.32 0,-0.844 -0.33,-1.656 -0.919,-2.26 -0.34,-0.35 -8.39,-8.48 -22.52,-8.48 z"
       style="fill:#2f2f2f;fill-rule:nonzero"
       id="path2" /></g><g
     transform="rotate(12.557829,82.561785,45.925684)"
     id="g9"><path
       d="m 87.345,23.821 c 7.075,5.49 15.21,9.657 24.189,10.783"
       style="fill:none;stroke:#bf3f0c;stroke-width:5px"
       id="path9" /></g><g
     transform="matrix(-0.97607706,-0.21742489,-0.21742489,0.97607706,150.03052,13.903312)"
     id="g10"><path
       d="m 87.345,23.821 c 7.075,5.49 15.21,9.657 24.189,10.783"
       style="fill:none;stroke:#bf3f0c;stroke-width:5px"
       id="path10" /></g><g
     id="g13"
     transform="rotate(12.557829,82.655922,78.016132)"><g
       transform="translate(-1.32129)"
       id="g3"><path
         d="m 87.685,36.458 c 0.978,-0.345 2.052,-0.291 2.99,0.15 4.583,2.105 9.434,3.603 14.521,4.241 1.036,0.13 1.978,0.663 2.624,1.483 2.434,3.133 3.918,7.088 3.965,11.402 0.111,10.199 -7.859,18.513 -17.8,18.589 h 0.001 C 84.045,72.4 75.898,64.199 75.787,54.019 75.699,45.931 80.676,39.023 87.685,36.458 Z"
         style="fill:#ffffff;fill-rule:nonzero"
         id="path3" /></g><g
       transform="matrix(0.83303,0,0,0.697879,14.3381,18.0449)"
       id="g4"><path
         d="M 93.976,71.799 C 84.5,71.883 76.734,62.787 76.628,51.496 76.523,40.163 84.12,30.92 93.596,30.836 c 9.455,-0.085 17.242,9.01 17.348,20.344 0.105,11.312 -7.492,20.534 -16.968,20.619 z"
         style="fill:#2f2f2f;fill-rule:nonzero"
         id="path4" /></g><g
       transform="matrix(0.83303,0,0,0.697879,14.3381,18.0449)"
       id="g5"><path
         d="m 101.85,51.088 c -3.715,2.697 -9.337,1.291 -12.552,-3.134 -3.228,-4.442 -2.83,-10.225 0.886,-12.923 3.707,-2.691 9.337,-1.291 12.564,3.15 3.222,4.434 2.817,10.21 -0.898,12.907 z M 88.607,67.306 c -2.16,1.159 -5.03,0.01 -6.412,-2.562 -1.387,-2.581 -0.759,-5.61 1.4,-6.77 2.155,-1.155 5.03,-0.01 6.417,2.572 1.384,2.577 0.754,5.602 -1.405,6.76 z"
         style="fill:#ffffff;fill-rule:nonzero"
         id="path5" /></g><g
       transform="translate(1.32129)"
       id="g6"><path
         d="m 36.969,36.519 c 0.924,-0.438 1.982,-0.502 2.952,-0.177 7.059,2.469 12.204,9.298 12.292,17.392 0.111,10.199 -7.859,18.513 -17.8,18.589 -9.94,0.077 -18.087,-8.124 -18.198,-18.304 -0.05,-4.657 1.578,-8.924 4.308,-12.195 0.456,-0.529 1.093,-0.87 1.786,-0.957 -0.002,-0.017 -0.002,-0.017 -0.001,-0.018 5.142,-0.645 10.043,-2.169 14.661,-4.33 z"
         style="fill:#ffffff;fill-rule:nonzero"
         id="path6" /></g><g
       transform="matrix(0.83303,0,0,0.697879,7.034,18.0449)"
       id="g7"><path
         d="M 34.404,71.799 C 24.928,71.883 17.162,62.787 17.056,51.496 16.951,40.163 24.548,30.92 34.024,30.836 43.479,30.751 51.266,39.846 51.372,51.18 51.477,62.492 43.88,71.714 34.404,71.799 Z"
         style="fill:#2f2f2f;fill-rule:nonzero"
         id="path7" /></g><g
       transform="matrix(0.83303,0,0,0.697879,7.034,18.0449)"
       id="g8"><path
         d="m 42.278,51.088 c -3.715,2.697 -9.337,1.291 -12.553,-3.134 -3.227,-4.442 -2.828,-10.225 0.887,-12.923 3.707,-2.691 9.337,-1.291 12.564,3.15 3.222,4.434 2.817,10.21 -0.898,12.907 z M 29.035,67.306 c -2.16,1.159 -5.03,0.01 -6.412,-2.562 -1.387,-2.581 -0.759,-5.61 1.4,-6.77 2.154,-1.155 5.03,-0.01 6.417,2.572 1.384,2.577 0.754,5.602 -1.405,6.76 z"
         style="fill:#ffffff;fill-rule:nonzero"
         id="path8" /></g><g
       transform="translate(-0.34067,1.49934)"
       id="g11"><path
         d="m 33.133,63.141 c -1.439,0.184 -2.69,-0.598 -4.026,-0.979 -2.093,-0.597 -6.618,-0.756 -8.196,0.86 -1.463,1.498 -0.168,3.835 0.712,4.567 0.897,0.745 2.455,1.057 3.212,2.076 0.7,0.943 1.183,2.057 2.201,2.731 2.59,1.715 5.085,-0.215 7.564,-0.235 2.603,-0.021 4.708,1.525 7.313,0.796 2.077,-0.582 2.234,-3.358 3.673,-4.635 0.825,-0.732 4.897,-0.945 4.924,-3.313 0.04,-3.44 -5.727,-2.805 -8.143,-2.63 -0.951,0.069 -1.841,-0.241 -2.773,-0.364 -1.551,-0.205 -3.372,-0.125 -4.837,0.471 z"
         style="fill:#e1fafe"
         id="path11" /></g><g
       transform="translate(57.0847,0.686237)"
       id="g12"><path
         d="m 38.553,63.314 c -3.736,-0.231 -3.796,2.166 -9.342,0 -2.027,-0.792 -6.722,-1.908 -8.3,-0.292 -1.463,1.498 -0.268,3.369 0.612,4.101 0.897,0.745 2.955,1.19 3.712,2.209 0.699,0.943 0.416,2.123 1.801,3.064 2.57,1.746 6.264,-0.348 8.744,-0.368 2.603,-0.021 3.528,1.658 6.133,0.929 2.077,-0.582 2.468,-3.42 3.907,-4.697 0.825,-0.732 5.222,-1.61 4.69,-3.917 -0.792,-3.44 -4.843,-1.204 -7.259,-1.029 -0.95,0.069 -3.759,0.058 -4.698,0 z"
         style="fill:#e1fafe"
         id="path12" /></g></g></svg>

<?xml version="1.0" encoding="UTF-8" standalone="no"?><!DOCTYPE svg PUBLIC "-//W3C//DTD SVG 1.1//EN" "http://www.w3.org/Graphics/SVG/1.1/DTD/svg11.dtd"><svg width="128px" height="128px" version="1.1" xmlns="http://www.w3.org/2000/svg" xmlns:xlink="http://www.w3.org/1999/xlink" xml:space="preserve" xmlns:serif="http://www.serif.com/" style="fill-rule:evenodd;clip-rule:evenodd;stroke-linecap:round;stroke-linejoin:round;stroke-miterlimit:1.5;"><rect x="0.06" y="0" width="127.99" height="128" style="fill:none;"/><path d="M63.89,9.64C1.58,9.64 0.1,79.5 0.1,93.33C0.1,107.16 28.66,118.36 63.89,118.36C99.13,118.36 127.68,107.15 127.68,93.33C127.68,79.5 126.21,9.64 63.89,9.64Z" style="fill:#fcc21b;fill-rule:nonzero;"/><g transform="matrix(1,0,0,-1,0,172.158)"><path d="M63.89,79.09C49.76,79.09 41.71,87.23 41.37,87.57C40.814,88.171 40.505,88.96 40.505,89.779C40.505,91.564 41.974,93.033 43.759,93.033C44.612,93.033 45.432,92.698 46.04,92.1C46.29,91.85 52.62,85.59 63.89,85.59C75.16,85.59 81.49,91.84 81.76,92.11C83.011,93.372 85.077,93.39 86.35,92.15C86.976,91.541 87.329,90.703 87.329,89.83C87.329,88.986 86.999,88.174 86.41,87.57C86.07,87.22 78.02,79.09 63.89,79.09Z" style="fill:#2f2f2f;fill-rule:nonzero;"/></g><g transform="matrix(1,0,0,1,-1.32129,0)"><path d="M87.685,36.458C88.663,36.113 89.737,36.167 90.675,36.608C95.258,38.713 100.109,40.211 105.196,40.849C106.232,40.979 107.174,41.512 107.82,42.332C110.254,45.465 111.738,49.42 111.785,53.734C111.896,63.933 103.926,72.247 93.985,72.323L93.986,72.323C84.045,72.4 75.898,64.199 75.787,54.019C75.699,45.931 80.676,39.023 87.685,36.458Z" style="fill:#fff;fill-rule:nonzero;"/></g><g transform="matrix(0.83303,0,0,0.697879,14.3381,18.0449)"><path d="M93.976,71.799C84.5,71.883 76.734,62.787 76.628,51.496C76.523,40.163 84.12,30.92 93.596,30.836C103.051,30.751 110.838,39.846 110.944,51.18C111.049,62.492 103.452,71.714 93.976,71.799Z" style="fill:#2f2f2f;fill-rule:nonzero;"/></g><g transform="matrix(0.83303,0,0,0.697879,14.3381,18.0449)"><path d="M101.85,51.088C98.135,53.785 92.513,52.379 89.298,47.954C86.07,43.512 86.468,37.729 90.184,35.031C93.891,32.34 99.521,33.74 102.748,38.181C105.97,42.615 105.565,48.391 101.85,51.088ZM88.607,67.306C86.447,68.465 83.577,67.316 82.195,64.744C80.808,62.163 81.436,59.134 83.595,57.974C85.75,56.819 88.625,57.964 90.012,60.546C91.396,63.123 90.766,66.148 88.607,67.306Z" style="fill:#fff;fill-rule:nonzero;"/></g><g transform="matrix(1,0,0,1,1.32129,0)"><path d="M36.969,36.519C37.893,36.081 38.951,36.017 39.921,36.342C46.98,38.811 52.125,45.64 52.213,53.734C52.324,63.933 44.354,72.247 34.413,72.323C24.473,72.4 16.326,64.199 16.215,54.019C16.165,49.362 17.793,45.095 20.523,41.824C20.979,41.295 21.616,40.954 22.309,40.867C22.307,40.85 22.307,40.85 22.308,40.849C27.45,40.204 32.351,38.68 36.969,36.519Z" style="fill:#fff;fill-rule:nonzero;"/></g><g transform="matrix(0.83303,0,0,0.697879,7.034,18.0449)"><path d="M34.404,71.799C24.928,71.883 17.162,62.787 17.056,51.496C16.951,40.163 24.548,30.92 34.024,30.836C43.479,30.751 51.266,39.846 51.372,51.18C51.477,62.492 43.88,71.714 34.404,71.799Z" style="fill:#2f2f2f;fill-rule:nonzero;"/></g><g transform="matrix(0.83303,0,0,0.697879,7.034,18.0449)"><path d="M42.278,51.088C38.563,53.785 32.941,52.379 29.725,47.954C26.498,43.512 26.897,37.729 30.612,35.031C34.319,32.34 39.949,33.74 43.176,38.181C46.398,42.615 45.993,48.391 42.278,51.088ZM29.035,67.306C26.875,68.465 24.005,67.316 22.623,64.744C21.236,62.163 21.864,59.134 24.023,57.974C26.177,56.819 29.053,57.964 30.44,60.546C31.824,63.123 31.194,66.148 29.035,67.306Z" style="fill:#fff;fill-rule:nonzero;"/></g><g transform="matrix(1,0,0,1,-6.97501,0.788166)"><path d="M87.345,23.821C94.42,29.311 102.555,33.478 111.534,34.604" style="fill:none;stroke:#bf3f0c;stroke-width:5px;"/></g><g transform="matrix(-1,0,0,1,134.479,0.788166)"><path d="M87.345,23.821C94.42,29.311 102.555,33.478 111.534,34.604" style="fill:none;stroke:#bf3f0c;stroke-width:5px;"/></g><g transform="matrix(1,0,0,1,-0.34067,1.49934)"><path d="M33.133,63.141C31.694,63.325 30.443,62.543 29.107,62.162C27.014,61.565 22.489,61.406 20.911,63.022C19.448,64.52 20.743,66.857 21.623,67.589C22.52,68.334 24.078,68.646 24.835,69.665C25.535,70.608 26.018,71.722 27.036,72.396C29.626,74.111 32.121,72.181 34.6,72.161C37.203,72.14 39.308,73.686 41.913,72.957C43.99,72.375 44.147,69.599 45.586,68.322C46.411,67.59 50.483,67.377 50.51,65.009C50.55,61.569 44.783,62.204 42.367,62.379C41.416,62.448 40.526,62.138 39.594,62.015C38.043,61.81 36.222,61.89 34.757,62.486L33.133,63.141Z" style="fill:#e1fafe;"/></g><g transform="matrix(1,0,0,1,57.0847,0.686237)"><path d="M38.553,63.314C34.817,63.083 34.757,65.48 29.211,63.314C27.184,62.522 22.489,61.406 20.911,63.022C19.448,64.52 20.643,66.391 21.523,67.123C22.42,67.868 24.478,68.313 25.235,69.332C25.934,70.275 25.651,71.455 27.036,72.396C29.606,74.142 33.3,72.048 35.78,72.028C38.383,72.007 39.308,73.686 41.913,72.957C43.99,72.375 44.381,69.537 45.82,68.26C46.645,67.528 51.042,66.65 50.51,64.343C49.718,60.903 45.667,63.139 43.251,63.314C42.301,63.383 39.492,63.372 38.553,63.314Z" style="fill:#e1fafe;"/></g></svg>
